X:1
T:Title
%%score { ( 1 3 ) | ( 2 4 ) }
L:1/8
M:4/4
K:Ab
V:1 treble nm="Grand Piano"
V:3 treble 
V:2 bass 
V:4 bass 
V:1
 z4 z2[Q:1/4=108] [CE]2 | z2 .F2 z4 | c2 B2 F2 G2 | B2 A2 d2 [Ac]2 |[M:3/4] [Ge]6 |[M:1/4] [DE]2 | %6
[M:4/4] [CE]2 C-[CG] [CA]2 [_Gc]2 |[M:9/8] [Fe]2 [Fd]- [Fd] [FA]2- [FA] [FB]2 |[M:4/4] E3 E F2 G2 | %9
[M:3/4] [CA]6 |[M:1/4] c2 |[M:4/4] e4 z4 | [Ge]6 z2 | z4 B2 z2 |[M:3/4] G2 F2 E2 |[M:1/4] E2 | %16
[M:4/4] e4 z4 |[M:9/8] F2 [Af]- [Af]3- [Af] [Fd]2 |[M:4/4] c3 c B2 B2 |[M:3/4] [CA]6 |] %20
V:2
 z4 z2 [A,,A,]2 | [A,,A,]2 [A,,A,]2 [A,,A,]2 [A,,A,]2 | [E,G,E]2 [E,G,D]2 [E,B,D]2 [E,B,D]2 | %3
 [F,A,D]2 [F,A,C]2 [F,B,F]2 [F,A,]2 |[M:3/4] [E,B,]6 |[M:1/4] [E,G,]2 | %6
[M:4/4] [A,,A,]2 [A,,A,]2 [A,,A,]2 [A,,A,]2 |[M:9/8] [D,A,]2 [D,A,]- [D,A,] [D,D]2- [D,D] [D,D]2 | %8
[M:4/4] [E,C]3 [E,C] [E,B,D]2 [E,B,D]2 |[M:3/4] [A,,A,]6 |[M:1/4][K:treble] [A,E]2 |[M:4/4] A6 z2 | %12
 [E,B,]3 E, E,2 [E,B,]2 | [F,A,F]4 [B,,B,]4 |[M:3/4] B,2 z2 z2 |[M:1/4] E,2 | %16
[M:4/4][K:treble] A3- [A,A-] [A,EA]2[K:bass] [C,A,]2 | %17
[M:9/8] [D,A,]2 [D,D]- [D,D] [D,D]2- [D,D] [D,A,]2 |[M:4/4] [E,A,E]3 [E,A,E] [E,G,E]2 [E,G,D]2 | %19
[M:3/4] [A,,A,]6 |] %20
V:3
 x8 | [CE]2 C-[CG] [CA]2 [Ec]2 | x8 | x8 |[M:3/4] x6 |[M:1/4] x2 |[M:4/4] z2 .F2 z4 |[M:9/8] x9 | %8
[M:4/4] x8 |[M:3/4] x6 |[M:1/4] x2 |[M:4/4] z2 z C c2 A2 | z2 z B, D2 [Gd]2 | d2 c2 =D2- [DA]2 | %14
[M:3/4] x6 |[M:1/4] x2 |[M:4/4] z2 z D c2 [EA]2 |[M:9/8] x9 |[M:4/4] x8 |[M:3/4] x6 |] %20
V:4
 x8 | x8 | x8 | x8 |[M:3/4] x6 |[M:1/4] x2 |[M:4/4] x8 |[M:9/8] x9 |[M:4/4] x8 |[M:3/4] x6 | %10
[M:1/4][K:treble] x2 |[M:4/4] [A,C]3 A, [A,E]2 [A,C]2 | x8 | x8 | %14
[M:3/4] [E,E]2- [E,-A,E]2 [E,G,]2 |[M:1/4] x2 |[M:4/4][K:treble] [A,C]4 z4[K:bass] |[M:9/8] x9 | %18
[M:4/4] x8 |[M:3/4] x6 |] %20

